X:1370
T:Cantico
C:anon.
O:Venezuela
Z:Transcribed by Frank Nordberg - http://www.musicaviva.com
F:http://abc.musicaviva.com/tunes/venezuela/cantico.abc
M:6/8
L:1/8
Q:3/8=72
K:Dm
AA|"Dm"d2ef2g|"A7"a2e2gg|"Dm"f2ed2f|"A7"e2^c2AA|
"Dm"d2ef2g|"A7"a2e2gg|"Dm"f2d"A7"e2^c|"Dm"d3 z aa|
"A7"e2eg2g|"Dm"f/e/d2 z aa|"A7"e2eg2g|"Dm"f/e/d2 z dd|
"Gm"g2gb2b|"Dm"a2ag2g|"Dm/A"f2f"A7"e2a|"Dm"d3 z|]
W:
W:
W:  From Musica Viva - http://www.musicaviva.com
W:  the Internet center for free sheet music downloads.
